X: 1
T: Bunka Lina Polska
O: efter David Bastviken
B: Svenska L\aalar (N\"arke) p.8 #13.
N: Polskan hette "Bunka Lina" efter en gammal gumma som sj\"ong melodien
N: f\"or Spel Petter i hans barndom. Johan Andersson hade den fr\aan Spel Petter.
N: Dette bearbetning \"ar fr\aan David Bastviken, April 1997 i Boston.
M: 3/4
L: 1/8
K: Dm
|: "Dm"A>^c- d>e- f/e/f/g/ | "A7"a>b (3agb a>g \
| e>f (3gag (3fef | d>^c e<c A>G \
| "A7"A>^c d>e (3fag | (3e-^ce "Dm"{c}d2 z2 :|
|: A>B G<A F>G | (3A(cB) (3G(AB) A>F \
|  A>B G<A F>G | (3(AcB) (3(GAB) A>G \
| "A7"A>^c d>e (3fag | (3e-^ce "Dm"{c}d2 z2 :|
